; generated by Slic3r 1.2.9 on 2015-08-18 at 16:31:15

; external perimeters extrusion width = 0.40mm
; perimeters extrusion width = 0.40mm
; infill extrusion width = 0.60mm
; solid infill extrusion width = 0.40mm
; top infill extrusion width = 0.40mm
; support material extrusion width = 0.40mm

M107
M104 S240 ; set temperature
G28 ; home all axes
G1 Z5 F5000 ; lift nozzle

M109 S240 ; wait for temperature to be reached
G21 ; set units to millimeters
G90 ; use absolute coordinates
M82 ; use absolute distances for extrusion
G92 E0
G1 Z2.950 F36000.000
G1 E-2.00000 F2400.00000
G92 E0
G1 X67.107 Y33.157 F36000.000
G1 E2.00000 F2400.00000
G1 X68.469 Y32.205 E2.06580 F1080.000
G1 X69.269 Y31.971 E2.09882
G1 X70.000 Y31.866 E2.12808
G1 X130.842 Y31.866 E4.53781
G1 X132.215 Y32.258 E4.59438
G1 X133.174 Y33.317 E4.65095 F1080.000
G1 X133.441 Y34.400 E4.69515
G1 X133.527 Y37.865 E4.83243
G1 X133.527 Y162.827 E9.78174
G1 X133.396 Y165.434 E9.88510
G1 X132.934 Y166.785 E9.94167
G1 X131.287 Y167.854 E10.01941
G1 X130.058 Y168.088 E10.06897
G1 X129.571 Y168.134 E10.08836
G1 X70.518 Y168.134 E12.42721
G1 X70.063 Y168.094 E12.44532
G1 X68.745 Y167.860 E12.49835
G1 X67.461 Y167.233 E12.55492
G1 X66.698 Y166.007 E12.61210
G1 X66.571 Y165.556 E12.63067
G1 X66.473 Y164.849 E12.65894
G1 X66.473 Y36.316 E17.74966
G1 X66.608 Y34.496 E17.82197
G1 X67.086 Y33.214 E17.87616
G1 X67.849 Y33.548 F36000.000
G1 X67.881 Y33.475 E17.87933 F1080.000
G1 X68.694 Y32.973 E17.91717
G1 X69.494 Y32.738 E17.95019
G1 X70.000 Y32.666 E17.97045
G1 X130.842 Y32.666 E20.38018
G1 X131.960 Y33.054 E20.42704
G1 X132.641 Y34.420 E20.48750 F1080.000
G1 X132.727 Y37.865 E20.62399
G1 X132.727 Y162.827 E25.57329
G1 X132.597 Y165.393 E25.67502
G1 X132.152 Y166.489 E25.72188
G1 X131.137 Y167.068 E25.76815
G1 X129.908 Y167.303 E25.81771
G1 X129.571 Y167.334 E25.83113
G1 X70.518 Y167.334 E28.16999
G1 X70.203 Y167.307 E28.18252
G1 X68.885 Y167.072 E28.23555
G1 X67.853 Y166.493 E28.28242
G1 X67.468 Y165.790 E28.31419
G1 X67.340 Y165.338 E28.33275
G1 X67.273 Y164.849 E28.35233
G1 X67.273 Y36.316 E33.44304
G1 X67.406 Y34.558 E33.51287
G1 X67.825 Y33.603 E33.55418
G1 E31.55418 F2400.00000
G92 E0
G1 X70.000 Y34.465 F36000.000
G1 E2.00000 F2400.00000
G1 X69.072 Y36.316 E2.08200 F1080.000
G1 X69.072 Y39.887 E2.22341
G1 X71.790 Y34.465 E2.46358
G1 X73.579 Y34.465 E2.53446
G1 X69.072 Y43.457 E2.93281
G1 X69.072 Y47.027 E3.07422
G1 X75.369 Y34.465 E3.63075
G1 X77.158 Y34.465 E3.70162
G1 X69.072 Y50.598 E4.41632
G1 X69.072 Y54.168 E4.55773
G1 X78.947 Y34.465 E5.43061
G1 X80.737 Y34.465 E5.50149
G1 X69.072 Y57.738 E6.53254
G1 X69.072 Y61.309 E6.67395
G1 X82.526 Y34.465 E7.86318
G1 X84.316 Y34.465 E7.93405
G1 X69.072 Y64.879 E9.28146
G1 X69.072 Y68.450 E9.42287
G1 X86.105 Y34.465 E10.92845
G1 X87.895 Y34.465 E10.99933
G1 X69.072 Y72.020 E12.66309
G1 X69.072 Y75.590 E12.80449
G1 X89.684 Y34.465 E14.62643
G1 X91.474 Y34.465 E14.69730
G1 X69.072 Y79.161 E16.67741
G1 X69.072 Y82.731 E16.81882
G1 X93.263 Y34.465 E18.95711
G1 X95.053 Y34.465 E19.02798
G1 X69.072 Y86.301 E21.32444
G1 X69.072 Y89.872 E21.46585
G1 X96.842 Y34.465 E23.92049
G1 X98.632 Y34.465 E23.99137
G1 X69.072 Y93.442 E26.60418
G1 X69.312 Y96.535 E26.72703
G1 X100.421 Y34.465 E29.47686
G1 X102.211 Y34.465 E29.54773
G1 X71.101 Y96.535 E32.29755
G1 X72.891 Y96.535 E32.36843
G1 X104.000 Y34.465 E35.11825
G1 X105.790 Y34.465 E35.18913
G1 X74.680 Y96.535 E37.93895
G1 X76.470 Y96.535 E38.00982
G1 X107.579 Y34.465 E40.75965
G1 X109.368 Y34.465 E40.83052
G1 X78.259 Y96.535 E43.58035
G1 X80.049 Y96.535 E43.65122
G1 X111.158 Y34.465 E46.40104
G1 X112.947 Y34.465 E46.47192
G1 X81.838 Y96.535 E49.22174
G1 X83.628 Y96.535 E49.29262
G1 X114.737 Y34.465 E52.04244
G1 X116.526 Y34.465 E52.11332
G1 X85.417 Y96.535 E54.86314
G1 X87.207 Y96.535 E54.93401
G1 X118.316 Y34.465 E57.68384
G1 X120.105 Y34.465 E57.75471
G1 X88.996 Y96.535 E60.50454
G1 X90.786 Y96.535 E60.57541
G1 X121.895 Y34.465 E63.32523
G1 X123.684 Y34.465 E63.39611
G1 X92.575 Y96.535 E66.14593
G1 X94.364 Y96.535 E66.21681
G1 X125.474 Y34.465 E68.96663
G1 X127.263 Y34.465 E69.03750
G1 X96.154 Y96.535 E71.78733
G1 X97.943 Y96.535 E71.85820
G1 X129.053 Y34.465 E74.60803
G1 X130.842 Y34.465 E74.67890
G1 X99.733 Y96.535 E77.42872
G1 X101.522 Y96.535 E77.49960
G1 X130.928 Y37.865 E80.09880
G1 X130.928 Y41.436 E80.24021
G1 X103.312 Y96.535 E82.68123
G1 X105.101 Y96.535 E82.75211
G1 X130.928 Y45.006 E85.03496
G1 X130.928 Y48.576 E85.17636
G1 X106.891 Y96.535 E87.30104
G1 X108.680 Y96.535 E87.37191
G1 X130.928 Y52.147 E89.33841
G1 X130.928 Y55.717 E89.47982
G1 X110.470 Y96.535 E91.28814
G1 X112.259 Y96.535 E91.35901
G1 X130.928 Y59.287 E93.00916
G1 X130.928 Y62.858 E93.15057
G1 X114.049 Y96.535 E94.64254
G1 X115.838 Y96.535 E94.71341
G1 X130.928 Y66.428 E96.04720
G1 X130.928 Y69.998 E96.18861
G1 X117.628 Y96.535 E97.36423
G1 X119.417 Y96.535 E97.43510
G1 X130.928 Y73.569 E98.45255
G1 X130.928 Y77.139 E98.59395
G1 X121.207 Y96.535 E99.45322
G1 X122.996 Y96.535 E99.52410
G1 X130.928 Y80.710 E100.22519
G1 X130.928 Y84.280 E100.36659
G1 X124.785 Y96.535 E100.90951
G1 X126.575 Y96.535 E100.98038
G1 X130.928 Y87.850 E101.36512
G1 X130.928 Y91.421 E101.50653
G1 X128.364 Y96.535 E101.73309
G1 X130.928 Y94.991 E101.85160
G1 X130.154 Y96.535 E101.91998
G1 E99.91998 F2400.00000
G92 E0
G1 X69.072 Y104.153 F36000.000
G1 E2.00000 F2400.00000
G1 X69.417 Y103.465 E2.03046 F1080.000
G1 X71.207 Y103.465 E2.10133
G1 X69.072 Y107.723 E2.28996
G1 X69.072 Y111.294 E2.43137
G1 X72.996 Y103.465 E2.77818
G1 X74.785 Y103.465 E2.84906
G1 X69.072 Y114.864 E3.35404
G1 X69.072 Y118.434 E3.49545
G1 X76.575 Y103.465 E4.15861
G1 X78.364 Y103.465 E4.22949
G1 X69.072 Y122.005 E5.05082
G1 X69.072 Y125.575 E5.19223
G1 X80.154 Y103.465 E6.17174
G1 X81.943 Y103.465 E6.24262
G1 X69.072 Y129.145 E7.38031
G1 X69.072 Y132.716 E7.52171
G1 X83.733 Y103.465 E8.81758
G1 X85.522 Y103.465 E8.88845
G1 X69.072 Y136.286 E10.34249
G1 X69.072 Y139.856 E10.48390
G1 X87.312 Y103.465 E12.09612
G1 X89.101 Y103.465 E12.16699
G1 X69.072 Y143.427 E13.93738
G1 X69.072 Y146.997 E14.07879
G1 X90.891 Y103.465 E16.00736
G1 X92.680 Y103.465 E16.07823
G1 X69.072 Y150.567 E18.16498
G1 X69.072 Y154.138 E18.30639
G1 X94.470 Y103.465 E20.55131
G1 X96.259 Y103.465 E20.62218
G1 X69.072 Y157.708 E23.02528
G1 X69.072 Y161.279 E23.16668
G1 X98.049 Y103.465 E25.72796
G1 X99.838 Y103.465 E25.79883
G1 X69.072 Y164.849 E28.51828
G1 X70.518 Y165.535 E28.58165
G1 X101.627 Y103.465 E31.33148
G1 X103.417 Y103.465 E31.40235
G1 X72.308 Y165.535 E34.15218
G1 X74.097 Y165.535 E34.22305
G1 X105.206 Y103.465 E36.97287
G1 X106.996 Y103.465 E37.04375
G1 X75.887 Y165.535 E39.79357
G1 X77.676 Y165.535 E39.86445
G1 X108.785 Y103.465 E42.61427
G1 X110.575 Y103.465 E42.68514
G1 X79.466 Y165.535 E45.43497
G1 X81.255 Y165.535 E45.50584
G1 X112.364 Y103.465 E48.25567
G1 X114.154 Y103.465 E48.32654
G1 X83.045 Y165.535 E51.07636
G1 X84.834 Y165.535 E51.14724
G1 X115.943 Y103.465 E53.89706
G1 X117.733 Y103.465 E53.96794
G1 X86.624 Y165.535 E56.71776
G1 X88.413 Y165.535 E56.78864
G1 X119.522 Y103.465 E59.53846
G1 X121.312 Y103.465 E59.60933
G1 X90.202 Y165.535 E62.35916
G1 X91.992 Y165.535 E62.43003
G1 X123.101 Y103.465 E65.17986
G1 X124.891 Y103.465 E65.25073
G1 X93.781 Y165.535 E68.00055
G1 X95.571 Y165.535 E68.07143
G1 X126.680 Y103.465 E70.82125
G1 X128.470 Y103.465 E70.89213
G1 X97.360 Y165.535 E73.64195
G1 X99.150 Y165.535 E73.71282
G1 X130.259 Y103.465 E76.46265
G1 X130.928 Y105.702 E76.55510
G1 X100.939 Y165.535 E79.20584
G1 X102.729 Y165.535 E79.27672
G1 X130.928 Y109.272 E81.76928
G1 X130.928 Y112.843 E81.91069
G1 X104.518 Y165.535 E84.24508
G1 X106.308 Y165.535 E84.31596
G1 X130.928 Y116.413 E86.49217
G1 X130.928 Y119.983 E86.63358
G1 X108.097 Y165.535 E88.65162
G1 X109.887 Y165.535 E88.72250
G1 X130.928 Y123.554 E90.58236
G1 X130.928 Y127.124 E90.72377
G1 X111.676 Y165.535 E92.42546
G1 X113.466 Y165.535 E92.49633
G1 X130.928 Y130.694 E94.03984
G1 X130.928 Y134.265 E94.18125
G1 X115.255 Y165.535 E95.56659
G1 X117.044 Y165.535 E95.63746
G1 X130.928 Y137.835 E96.86462
G1 X130.928 Y141.405 E97.00603
G1 X118.834 Y165.535 E98.07501
G1 X120.623 Y165.535 E98.14589
G1 X130.928 Y144.976 E99.05670
G1 X130.928 Y148.546 E99.19811
G1 X122.413 Y165.535 E99.95074
G1 X124.202 Y165.535 E100.02161
G1 X130.928 Y152.116 E100.61607
G1 X130.928 Y155.687 E100.75748
G1 X125.992 Y165.535 E101.19376
G1 X127.781 Y165.535 E101.26463
G1 X130.928 Y159.257 E101.54274
G1 X130.928 Y162.827 E101.68415
G1 X129.571 Y165.535 E101.80408
M106 S135.15
G1 Z3.250 F36000.000
G1 X130.800 Y165.300 F36000.000
G1 X130.800 Y103.700 E102.68151 F3600.000
G1 X69.200 Y103.700 E103.55895
G1 X69.200 Y165.300 E104.43639
G1 X130.800 Y165.300 E105.31383
G1 X79.815 Y163.312 F36000.000
G1 X77.506 Y159.312 E105.37962 F3600.000
G1 X72.241 Y159.312 E105.45462
G1 X69.931 Y163.312 E105.52041
G1 X69.536 Y163.312 E105.52604
G1 X69.536 Y163.685 E105.53136
G1 X69.931 Y163.685 E105.53699
G1 X70.670 Y164.964 E105.55803
G1 X79.077 Y164.964 E105.67778
G1 X79.815 Y163.685 E105.69882
G1 X85.080 Y163.685 E105.77382
G1 X85.819 Y164.964 E105.79486
G1 X94.226 Y164.964 E105.91461
G1 X94.964 Y163.685 E105.93565
G1 X100.229 Y163.685 E106.01065
G1 X100.968 Y164.964 E106.03169
G1 X109.375 Y164.964 E106.15143
G1 X110.113 Y163.685 E106.17247
G1 X115.379 Y163.685 E106.24747
G1 X116.117 Y164.964 E106.26851
G1 X124.524 Y164.964 E106.38826
G1 X125.263 Y163.685 E106.40930
G1 X130.464 Y163.685 E106.48340
G1 X130.464 Y163.312 E106.48871
G1 X125.263 Y163.312 E106.56281
G1 X122.953 Y159.312 E106.62860
G1 X117.688 Y159.312 E106.70360
G1 X115.379 Y163.312 E106.76939
G1 X110.113 Y163.312 E106.84439
G1 X107.804 Y159.312 E106.91018
G1 X102.539 Y159.312 E106.98517
G1 X100.229 Y163.312 E107.05096
G1 X94.964 Y163.312 E107.12596
G1 X92.655 Y159.312 E107.19175
G1 X87.390 Y159.312 E107.26675
G1 X85.080 Y163.312 E107.33254
G1 X79.815 Y163.312 E107.40754
G1 X79.815 Y154.566 F36000.000
G1 X77.506 Y150.566 E107.47333 F3600.000
G1 X72.241 Y150.566 E107.54833
G1 X69.931 Y154.566 E107.61412
G1 X69.536 Y154.566 E107.61975
G1 X69.536 Y154.939 E107.62507
G1 X69.931 Y154.939 E107.63070
G1 X72.241 Y158.939 E107.69649
G1 X77.506 Y158.939 E107.77149
G1 X79.815 Y154.939 E107.83728
G1 X85.080 Y154.939 E107.91228
G1 X87.390 Y158.939 E107.97807
G1 X92.655 Y158.939 E108.05307
G1 X94.964 Y154.939 E108.11886
G1 X100.229 Y154.939 E108.19386
G1 X102.539 Y158.939 E108.25965
G1 X107.804 Y158.939 E108.33465
G1 X110.113 Y154.939 E108.40044
G1 X115.379 Y154.939 E108.47543
G1 X117.688 Y158.939 E108.54122
G1 X122.953 Y158.939 E108.61622
G1 X125.263 Y154.939 E108.68201
G1 X130.464 Y154.939 E108.75611
G1 X130.464 Y154.566 E108.76142
G1 X125.263 Y154.566 E108.83552
G1 X122.953 Y150.566 E108.90131
G1 X117.688 Y150.566 E108.97631
G1 X115.379 Y154.566 E109.04210
G1 X110.113 Y154.566 E109.11710
G1 X107.804 Y150.566 E109.18289
G1 X102.539 Y150.566 E109.25789
G1 X100.229 Y154.566 E109.32368
G1 X94.964 Y154.566 E109.39867
G1 X92.655 Y150.566 E109.46447
G1 X87.390 Y150.566 E109.53946
G1 X85.080 Y154.566 E109.60525
G1 X79.815 Y154.566 E109.68025
G1 X79.815 Y145.819 F36000.000
G1 X77.506 Y141.819 E109.74604 F3600.000
G1 X72.241 Y141.819 E109.82104
G1 X69.931 Y145.819 E109.88683
G1 X69.536 Y145.819 E109.89247
G1 X69.536 Y146.192 E109.89778
G1 X69.931 Y146.192 E109.90342
G1 X72.241 Y150.192 E109.96921
G1 X77.506 Y150.192 E110.04420
G1 X79.815 Y146.192 E110.10999
G1 X85.080 Y146.192 E110.18499
G1 X87.390 Y150.192 E110.25078
G1 X92.655 Y150.192 E110.32578
G1 X94.964 Y146.192 E110.39157
G1 X100.229 Y146.192 E110.46657
G1 X102.539 Y150.192 E110.53236
G1 X107.804 Y150.192 E110.60736
G1 X110.113 Y146.192 E110.67315
G1 X115.379 Y146.192 E110.74815
G1 X117.688 Y150.192 E110.81394
G1 X122.953 Y150.192 E110.88893
G1 X125.263 Y146.192 E110.95473
G1 X130.464 Y146.192 E111.02882
G1 X130.464 Y145.819 E111.03414
G1 X125.263 Y145.819 E111.10823
G1 X122.953 Y141.819 E111.17402
G1 X117.688 Y141.819 E111.24902
G1 X115.379 Y145.819 E111.31481
G1 X110.113 Y145.819 E111.38981
G1 X107.804 Y141.819 E111.45560
G1 X102.539 Y141.819 E111.53060
G1 X100.229 Y145.819 E111.59639
G1 X94.964 Y145.819 E111.67139
G1 X92.655 Y141.819 E111.73718
G1 X87.390 Y141.819 E111.81218
G1 X85.080 Y145.819 E111.87797
G1 X79.815 Y145.819 E111.95296
G1 X79.815 Y137.073 F36000.000
G1 X77.506 Y133.073 E112.01875 F3600.000
G1 X72.241 Y133.073 E112.09375
G1 X69.931 Y137.073 E112.15954
G1 X69.536 Y137.073 E112.16518
G1 X69.536 Y137.446 E112.17049
G1 X69.931 Y137.446 E112.17613
G1 X72.241 Y141.446 E112.24192
G1 X77.506 Y141.446 E112.31692
G1 X79.815 Y137.446 E112.38271
G1 X85.080 Y137.446 E112.45770
G1 X87.390 Y141.446 E112.52350
G1 X92.655 Y141.446 E112.59849
G1 X94.964 Y137.446 E112.66428
G1 X100.229 Y137.446 E112.73928
G1 X102.539 Y141.446 E112.80507
G1 X107.804 Y141.446 E112.88007
G1 X110.113 Y137.446 E112.94586
G1 X115.379 Y137.446 E113.02086
G1 X117.688 Y141.446 E113.08665
G1 X122.953 Y141.446 E113.16165
G1 X125.263 Y137.446 E113.22744
G1 X130.464 Y137.446 E113.30153
G1 X130.464 Y137.073 E113.30685
G1 X125.263 Y137.073 E113.38095
G1 X122.953 Y133.073 E113.44674
G1 X117.688 Y133.073 E113.52173
G1 X115.379 Y137.073 E113.58752
G1 X110.113 Y137.073 E113.66252
G1 X107.804 Y133.073 E113.72831
G1 X102.539 Y133.073 E113.80331
G1 X100.229 Y137.073 E113.86910
G1 X94.964 Y137.073 E113.94410
G1 X92.655 Y133.073 E114.00989
G1 X87.390 Y133.073 E114.08489
G1 X85.080 Y137.073 E114.15068
G1 X79.815 Y137.073 E114.22568
G1 X79.815 Y128.327 F36000.000
G1 X77.506 Y124.327 E114.29147 F3600.000
G1 X72.241 Y124.327 E114.36646
G1 X69.931 Y128.327 E114.43226
G1 X69.536 Y128.327 E114.43789
G1 X69.536 Y128.700 E114.44321
G1 X69.931 Y128.700 E114.44884
G1 X72.241 Y132.700 E114.51463
G1 X77.506 Y132.700 E114.58963
G1 X79.815 Y128.700 E114.65542
G1 X85.080 Y128.700 E114.73042
G1 X87.390 Y132.700 E114.79621
G1 X92.655 Y132.700 E114.87121
G1 X94.964 Y128.700 E114.93700
G1 X100.229 Y128.700 E115.01199
G1 X102.539 Y132.700 E115.07779
G1 X107.804 Y132.700 E115.15278
G1 X110.113 Y128.700 E115.21857
G1 X115.379 Y128.700 E115.29357
G1 X117.688 Y132.700 E115.35936
G1 X122.953 Y132.700 E115.43436
G1 X125.263 Y128.700 E115.50015
G1 X130.464 Y128.700 E115.57425
G1 X130.464 Y128.327 E115.57956
G1 X125.263 Y128.327 E115.65366
G1 X122.953 Y124.327 E115.71945
G1 X117.688 Y124.327 E115.79445
G1 X115.379 Y128.327 E115.86024
G1 X110.113 Y128.327 E115.93523
G1 X107.804 Y124.327 E116.00103
G1 X102.539 Y124.327 E116.07602
G1 X100.229 Y128.327 E116.14181
G1 X94.964 Y128.327 E116.21681
G1 X92.655 Y124.327 E116.28260
G1 X87.390 Y124.327 E116.35760
G1 X85.080 Y128.327 E116.42339
G1 X79.815 Y128.327 E116.49839
G1 X79.815 Y119.580 F36000.000
G1 X77.506 Y115.580 E116.56418 F3600.000
G1 X72.241 Y115.580 E116.63918
G1 X69.931 Y119.580 E116.70497
G1 X69.536 Y119.580 E116.71060
G1 X69.536 Y119.953 E116.71592
G1 X69.931 Y119.953 E116.72155
G1 X72.241 Y123.953 E116.78734
G1 X77.506 Y123.953 E116.86234
G1 X79.815 Y119.953 E116.92813
G1 X85.080 Y119.953 E117.00313
G1 X87.390 Y123.953 E117.06892
G1 X92.655 Y123.953 E117.14392
G1 X94.964 Y119.953 E117.20971
G1 X100.229 Y119.953 E117.28471
G1 X102.539 Y123.953 E117.35050
G1 X107.804 Y123.953 E117.42550
G1 X110.113 Y119.953 E117.49129
G1 X115.379 Y119.953 E117.56628
G1 X117.688 Y123.953 E117.63207
G1 X122.953 Y123.953 E117.70707
G1 X125.263 Y119.953 E117.77286
G1 X130.464 Y119.953 E117.84696
G1 X130.464 Y119.580 E117.85227
G1 X125.263 Y119.580 E117.92637
G1 X122.953 Y115.580 E117.99216
G1 X117.688 Y115.580 E118.06716
G1 X115.379 Y119.580 E118.13295
G1 X110.113 Y119.580 E118.20795
G1 X107.804 Y115.580 E118.27374
G1 X102.539 Y115.580 E118.34874
G1 X100.229 Y119.580 E118.41453
G1 X94.964 Y119.580 E118.48952
G1 X92.655 Y115.580 E118.55532
G1 X87.390 Y115.580 E118.63031
G1 X85.080 Y119.580 E118.69610
G1 X79.815 Y119.580 E118.77110
G1 X79.815 Y110.834 F36000.000
G1 X77.506 Y106.834 E118.83689 F3600.000
G1 X72.241 Y106.834 E118.91189
G1 X69.931 Y110.834 E118.97768
G1 X69.536 Y110.834 E118.98332
G1 X69.536 Y111.207 E118.98863
G1 X69.931 Y111.207 E118.99427
