; generated by Slic3r 1.2.9 on 2015-08-18 at 19:13:53

; external perimeters extrusion width = 0.40mm
; perimeters extrusion width = 0.40mm
; infill extrusion width = 0.60mm
; solid infill extrusion width = 0.40mm
; top infill extrusion width = 0.40mm

M107
M104 S240 ; set temperature
G28 ; home all axes
G1 Z5 F5000 ; lift nozzle

M109 S240 ; wait for temperature to be reached
G21 ; set units to millimeters
G90 ; use absolute coordinates
M82 ; use absolute distances for extrusion
G92 E0
G1 Z2.850 F36000.000
G1 E-2.00000 F2400.00000
G92 E0
G1 X68.543 Y35.127 F36000.000
G1 E2.00000 F2400.00000
G1 X69.601 Y34.168 E2.05657 F1080.000
G1 X70.750 Y33.900 E2.10329
G1 X129.250 Y33.900 E4.42027
G1 X130.623 Y34.293 E4.47683
G1 X131.582 Y35.351 E4.53340 F1080.000
G1 X131.850 Y36.500 E4.58012
G1 X131.850 Y163.500 E9.61014
G1 X131.457 Y164.873 E9.66671
G1 X130.399 Y165.832 E9.72327
G1 X129.250 Y166.100 E9.77000
G1 X70.750 Y166.100 E12.08697
G1 X69.377 Y165.707 E12.14354
G1 X68.418 Y164.649 E12.20011
G1 X68.150 Y163.500 E12.24683
G1 X68.150 Y36.500 E17.27685
G1 X68.526 Y35.184 E17.33104
G1 X69.313 Y35.458 F36000.000
G1 X69.339 Y35.383 E17.33421 F1080.000
G1 X70.750 Y34.700 E17.39629
G1 X129.250 Y34.700 E19.71326
G1 X130.367 Y35.089 E19.76012
G1 X131.050 Y36.500 E19.82220 F1080.000
G1 X131.050 Y163.500 E24.85222
G1 X130.661 Y164.617 E24.89908
G1 X129.250 Y165.300 E24.96116
G1 X70.750 Y165.300 E27.27813
G1 X69.633 Y164.911 E27.32499
G1 X68.950 Y163.500 E27.38707
G1 X68.950 Y36.500 E32.41709
G1 X69.293 Y35.515 E32.45840
G1 E30.45840 F2400.00000
G92 E0
G1 X111.418 Y162.263 F36000.000
G1 E2.00000 F2400.00000
G1 X76.717 Y162.263 E3.37438 F1800.000
G1 X76.876 Y161.774 E3.39473
G1 X76.961 Y161.328 E3.41271
G1 X76.990 Y160.875 E3.43069
G1 X76.961 Y160.422 E3.44867
G1 X76.876 Y159.976 E3.46665
G1 X76.736 Y159.544 E3.48463
G1 X76.543 Y159.134 E3.50261
G1 X76.299 Y158.750 E3.52059
G1 X76.010 Y158.401 E3.53857
G1 X75.679 Y158.090 E3.55655
G1 X75.312 Y157.823 E3.57453
G1 X74.914 Y157.604 E3.59251
G1 X74.492 Y157.437 E3.61049
G1 X74.052 Y157.324 E3.62847
G1 X73.602 Y157.267 E3.64645
G1 X73.148 Y157.267 E3.66443
G1 X72.698 Y157.324 E3.68240
G1 X71.987 Y157.506 E3.71145
G1 X71.987 Y110.996 E5.55354
G1 X72.723 Y111.179 E5.58358
G1 X73.148 Y111.233 E5.60053
G1 X73.602 Y111.233 E5.61850
G1 X74.052 Y111.176 E5.63648
G1 X74.492 Y111.063 E5.65446
G1 X74.914 Y110.896 E5.67244
G1 X75.312 Y110.677 E5.69042
G1 X75.679 Y110.410 E5.70840
G1 X76.010 Y110.099 E5.72638
G1 X76.299 Y109.750 E5.74436
G1 X76.543 Y109.366 E5.76234
G1 X76.736 Y108.956 E5.78032
G1 X76.876 Y108.524 E5.79829
G1 X76.961 Y108.078 E5.81628
G1 X76.990 Y107.625 E5.83426
G1 X76.961 Y107.172 E5.85224
G1 X76.876 Y106.726 E5.87022
G1 X76.717 Y106.237 E5.89057
G1 X123.283 Y106.237 E7.73484
G1 X123.124 Y106.726 E7.75519
G1 X123.039 Y107.172 E7.77317 F1800.000
G1 X123.010 Y107.625 E7.79115
G1 X123.039 Y108.078 E7.80913
G1 X123.124 Y108.524 E7.82711
G1 X123.264 Y108.956 E7.84509
G1 X123.457 Y109.366 E7.86307
G1 X123.701 Y109.750 E7.88105
G1 X123.973 Y110.079 E7.89800
G1 X124.317 Y110.407 E7.91680
G1 X124.688 Y110.677 E7.93498
G1 X125.086 Y110.896 E7.95296
G1 X125.508 Y111.063 E7.97094
G1 X125.948 Y111.176 E7.98892
G1 X126.398 Y111.233 E8.00690
G1 X126.852 Y111.233 E8.02488
G1 X127.302 Y111.176 E8.04286
G1 X128.013 Y110.993 E8.07190
G1 X128.013 Y157.506 E9.91412
G1 X127.302 Y157.324 E9.94316
G1 X126.852 Y157.267 E9.96114
G1 X126.398 Y157.267 E9.97912
G1 X125.948 Y157.324 E9.99709
G1 X125.508 Y157.437 E10.01507
G1 X125.086 Y157.604 E10.03305
G1 X124.688 Y157.823 E10.05103
G1 X124.321 Y158.090 E10.06902
G1 X123.990 Y158.401 E10.08700
G1 X123.701 Y158.750 E10.10497
G1 X123.457 Y159.134 E10.12295
G1 X123.264 Y159.544 E10.14093
G1 X123.124 Y159.976 E10.15891
G1 X123.039 Y160.422 E10.17689
G1 X123.010 Y160.875 E10.19487
G1 X123.039 Y161.328 E10.21285
G1 X123.124 Y161.774 E10.23083
G1 X123.283 Y162.263 E10.25118
G1 X111.478 Y162.263 E10.71870
G1 X111.478 Y163.063 F36000.000
G1 X75.209 Y163.063 E12.15518 F1800.000
G1 X75.651 Y162.529 E12.18263
G1 X75.840 Y162.230 E12.19662
G1 X75.991 Y161.911 E12.21061
G1 X76.100 Y161.575 E12.22461
G1 X76.166 Y161.228 E12.23860
G1 X76.188 Y160.875 E12.25259
G1 X76.166 Y160.522 E12.26659
G1 X76.100 Y160.175 E12.28058
G1 X75.991 Y159.839 E12.29457
G1 X75.840 Y159.520 E12.30857
G1 X75.651 Y159.221 E12.32256
G1 X75.426 Y158.949 E12.33655
G1 X75.168 Y158.707 E12.35054
G1 X74.882 Y158.500 E12.36454
G1 X74.573 Y158.329 E12.37853
G1 X74.244 Y158.199 E12.39253
G1 X73.902 Y158.111 E12.40652
G1 X73.552 Y158.067 E12.42051
G1 X73.198 Y158.067 E12.43450
G1 X72.848 Y158.111 E12.44849
G1 X72.506 Y158.199 E12.46249
G1 X72.177 Y158.329 E12.47648
G1 X71.868 Y158.500 E12.49047
G1 X71.582 Y158.707 E12.50447
G1 X71.187 Y159.077 E12.52589
G1 X71.187 Y109.423 E14.49254
G1 X71.582 Y109.793 E14.51396
G1 X71.868 Y110.000 E14.52795
G1 X72.177 Y110.171 E14.54195
G1 X72.507 Y110.301 E14.55601
G1 X72.870 Y110.391 E14.57083
G1 X73.198 Y110.433 E14.58392
G1 X73.552 Y110.433 E14.59791
G1 X73.902 Y110.389 E14.61191
G1 X74.244 Y110.301 E14.62590
G1 X74.573 Y110.171 E14.63989
G1 X74.882 Y110.000 E14.65389
G1 X75.168 Y109.793 E14.66788
G1 X75.426 Y109.551 E14.68187
G1 X75.651 Y109.279 E14.69586
G1 X75.840 Y108.980 E14.70986
G1 X75.991 Y108.661 E14.72385
G1 X76.100 Y108.325 E14.73784
G1 X76.166 Y107.978 E14.75184
G1 X76.188 Y107.625 E14.76583
G1 X76.166 Y107.272 E14.77982
G1 X76.100 Y106.925 E14.79382
G1 X75.991 Y106.589 E14.80781
G1 X75.840 Y106.270 E14.82180
G1 X75.651 Y105.971 E14.83580
G1 X75.209 Y105.437 E14.86324
G1 X124.791 Y105.437 E16.82697
G1 X124.349 Y105.971 E16.85441
G1 X124.160 Y106.270 E16.86840 F1800.000
G1 X124.009 Y106.589 E16.88240
G1 X123.900 Y106.925 E16.89639
G1 X123.834 Y107.272 E16.91038
G1 X123.812 Y107.625 E16.92438
G1 X123.834 Y107.978 E16.93837
G1 X123.900 Y108.325 E16.95236
G1 X124.009 Y108.661 E16.96636
G1 X124.160 Y108.980 E16.98035
G1 X124.349 Y109.279 E16.99434
G1 X124.560 Y109.533 E17.00744
G1 X124.830 Y109.792 E17.02225
G1 X125.118 Y110.000 E17.03632
G1 X125.427 Y110.171 E17.05031
G1 X125.756 Y110.301 E17.06430
G1 X126.098 Y110.389 E17.07830
G1 X126.448 Y110.433 E17.09229
G1 X126.802 Y110.433 E17.10628
G1 X127.152 Y110.389 E17.12027
G1 X127.494 Y110.301 E17.13427
G1 X127.823 Y110.171 E17.14826
G1 X128.132 Y110.000 E17.16225
G1 X128.418 Y109.793 E17.17625
G1 X128.813 Y109.423 E17.19767
G1 X128.813 Y159.077 E19.16432
G1 X128.418 Y158.707 E19.18574
G1 X128.132 Y158.500 E19.19973
G1 X127.823 Y158.329 E19.21373
G1 X127.494 Y158.199 E19.22772
G1 X127.152 Y158.111 E19.24172
G1 X126.802 Y158.067 E19.25571
G1 X126.448 Y158.067 E19.26970
G1 X126.098 Y158.111 E19.28369
G1 X125.756 Y158.199 E19.29768
G1 X125.427 Y158.329 E19.31168
G1 X125.118 Y158.500 E19.32567
G1 X124.832 Y158.707 E19.33967
G1 X124.574 Y158.949 E19.35366
G1 X124.349 Y159.221 E19.36765
G1 X124.160 Y159.520 E19.38164
G1 X124.009 Y159.839 E19.39564
G1 X123.900 Y160.175 E19.40963
G1 X123.834 Y160.522 E19.42362
G1 X123.812 Y160.875 E19.43762
G1 X123.834 Y161.228 E19.45161
G1 X123.900 Y161.575 E19.46560
G1 X124.009 Y161.911 E19.47960
G1 X124.160 Y162.230 E19.49359
G1 X124.349 Y162.529 E19.50758
G1 X124.791 Y163.063 E19.53502
G1 X111.538 Y163.063 E20.05989
G1 X111.278 Y162.716 F36000.000
G1 E18.05989 F2400.00000
G92 E0
G1 X127.366 Y105.178 F36000.000
G1 E2.00000 F2400.00000
G1 X128.057 Y105.330 E2.02803 F1800.000
G1 X128.695 Y105.555 E2.05482
G1 X128.869 Y106.025 E2.07465
G1 X129.079 Y106.871 E2.10920
G1 X129.079 Y161.629 F36000.000
G1 X128.869 Y162.475 E2.14376 F1800.000
G1 X128.695 Y162.945 E2.16358
G1 X128.057 Y163.170 E2.19038
G1 X127.366 Y163.322 E2.21840
G1 X72.634 Y163.322 F36000.000
G1 X71.943 Y163.170 E2.24642 F1800.000
G1 X71.305 Y162.945 E2.27322
G1 X71.131 Y162.475 E2.29304
G1 X70.921 Y161.629 E2.32760
G1 X70.921 Y106.871 F36000.000
G1 X71.131 Y106.025 E2.36215 F1800.000
G1 X71.305 Y105.555 E2.38198
G1 X71.943 Y105.330 E2.40877
G1 X72.634 Y105.178 E2.43680
G1 X122.582 Y107.104 F36000.000
G1 X122.205 Y106.728 E2.45811 F1800.000
G1 X121.062 Y106.728 E2.50386
G1 X122.545 Y108.210 E2.58778
G1 X123.050 Y109.859 E2.65679
G1 X119.919 Y106.728 E2.83402
G1 X118.776 Y106.728 E2.87978
G1 X127.522 Y115.474 E3.37487
G1 X127.522 Y114.331 E3.42062
G1 X124.371 Y111.179 E3.59902
G1 X126.039 Y111.704 E3.66901
G1 X127.522 Y113.188 E3.75299
G1 X127.522 Y112.045 E3.79874
G1 X127.147 Y111.669 E3.81998
G1 X127.522 Y116.617 F36000.000
G1 X117.633 Y106.728 E4.37977 F1800.000
G1 X116.490 Y106.728 E4.42553
G1 X127.522 Y117.760 E5.05003
G1 X127.522 Y118.904 E5.09579
G1 X115.346 Y106.728 E5.78500
G1 X114.203 Y106.728 E5.83075
G1 X127.522 Y120.047 E6.58467
G1 X127.522 Y121.190 E6.63042
G1 X113.060 Y106.728 E7.44905
G1 X111.917 Y106.728 E7.49481
G1 X127.522 Y122.333 E8.37814
G1 X127.522 Y123.476 E8.42389
G1 X110.774 Y106.728 E9.37193
G1 X109.631 Y106.728 E9.41769
G1 X127.522 Y124.619 E10.43044
G1 X127.522 Y125.763 E10.47619
G1 X108.487 Y106.728 E11.55365
G1 X107.344 Y106.728 E11.59941
G1 X127.522 Y126.906 E12.74157
G1 X127.522 Y128.049 E12.78733
G1 X106.201 Y106.728 E13.99420
G1 X105.058 Y106.728 E14.03995
G1 X127.522 Y129.192 E15.31153
G1 X127.522 Y130.335 E15.35729
G1 X103.915 Y106.728 E16.69358
G1 X102.772 Y106.728 E16.73933
G1 X127.522 Y131.478 E18.14033
G1 X127.522 Y132.622 E18.18608
G1 X101.628 Y106.728 E19.65179
G1 X100.485 Y106.728 E19.69754
G1 X127.522 Y133.765 E21.22795
G1 X127.522 Y134.908 E21.27371
G1 X99.342 Y106.728 E22.86883
G1 X98.199 Y106.728 E22.91458
G1 X127.522 Y136.051 E24.57441
G1 X127.522 Y137.194 E24.62016
G1 X97.056 Y106.728 E26.34470
G1 X95.913 Y106.728 E26.39045
G1 X127.522 Y138.337 E28.17969
G1 X127.522 Y139.481 E28.22545
G1 X94.769 Y106.728 E30.07940
G1 X93.626 Y106.728 E30.12516
G1 X127.522 Y140.624 E32.04381
G1 X127.522 Y141.767 E32.08957
G1 X92.483 Y106.728 E34.07293
G1 X91.340 Y106.728 E34.11869
G1 X127.522 Y142.910 E36.16676
G1 X127.522 Y144.053 E36.21252
G1 X90.197 Y106.728 E38.32530
G1 X89.054 Y106.728 E38.37105
G1 X127.522 Y145.196 E40.54854
G1 X127.522 Y146.340 E40.59430
G1 X87.910 Y106.728 E42.83649
G1 X86.767 Y106.728 E42.88225
G1 X127.522 Y147.483 E45.18915
G1 X127.522 Y148.626 E45.23491
G1 X85.624 Y106.728 E47.60652
G1 X84.481 Y106.728 E47.65228
G1 X127.522 Y149.769 E50.08860
G1 X127.522 Y150.912 E50.13435
G1 X83.338 Y106.728 E52.63538
G1 X82.194 Y106.728 E52.68113
G1 X127.522 Y152.056 E55.24687
G1 X127.522 Y153.199 E55.29262
G1 X81.051 Y106.728 E57.92307
G1 X79.908 Y106.728 E57.96882
G1 X127.522 Y154.342 E60.66397
G1 X127.522 Y155.485 E60.70973
G1 X78.765 Y106.728 E63.46959
G1 X77.622 Y106.728 E63.51534
G1 X127.522 Y156.628 E66.33991
G1 X126.528 Y156.777 E66.38015
G1 X77.465 Y107.714 E69.15731
G1 X77.293 Y108.685 E69.19678
G1 X125.563 Y156.955 E71.92904
G1 X124.759 Y157.294 E71.96397
G1 X76.961 Y109.497 E74.66949
G1 X76.495 Y110.174 E74.70239
G1 X124.070 Y157.749 E77.39534
G1 X123.505 Y158.326 E77.42769
G1 X75.930 Y110.751 E80.12064
G1 X75.241 Y111.206 E80.15366
G1 X123.039 Y159.004 E82.85918
G1 X122.707 Y159.815 E82.89427
G1 X74.437 Y111.545 E85.62653
G1 X73.472 Y111.723 E85.66582
G1 X122.535 Y160.786 E88.44298
G1 X122.378 Y161.772 E88.48296
G1 X72.478 Y111.872 E91.30752
G1 X72.478 Y113.015 E91.35328
G1 X121.235 Y161.772 E94.11313
G1 X120.092 Y161.772 E94.15889
G1 X72.478 Y114.158 E96.85404
G1 X72.478 Y115.301 E96.89979
G1 X118.949 Y161.772 E99.53023
G1 X117.805 Y161.772 E99.57599
G1 X72.478 Y116.445 E102.14172
G1 X72.478 Y117.588 E102.18748
G1 X116.662 Y161.772 E104.68850
G1 X115.519 Y161.772 E104.73426
G1 X72.478 Y118.731 E107.17057
G1 X72.478 Y119.874 E107.21633
G1 X114.376 Y161.772 E109.58794
G1 X113.233 Y161.772 E109.63369
G1 X72.478 Y121.017 E111.94059
G1 X72.478 Y122.160 E111.98635
G1 X112.090 Y161.772 E114.22854
G1 X110.946 Y161.772 E114.27430
G1 X72.478 Y123.304 E116.45178
G1 X72.478 Y124.447 E116.49754
G1 X109.803 Y161.772 E118.61032
G1 X108.660 Y161.772 E118.65607
G1 X72.478 Y125.590 E120.70414
G1 X72.478 Y126.733 E120.74990
G1 X107.517 Y161.772 E122.73326
G1 X106.374 Y161.772 E122.77902
G1 X72.478 Y127.876 E124.69767
G1 X72.478 Y129.019 E124.74343
G1 X105.231 Y161.772 E126.59737
G1 X104.087 Y161.772 E126.64313
G1 X72.478 Y130.163 E128.43237
G1 X72.478 Y131.306 E128.47812
G1 X102.944 Y161.772 E130.20265
G1 X101.801 Y161.772 E130.24841
G1 X72.478 Y132.449 E131.90823
G1 X72.478 Y133.592 E131.95399
G1 X100.658 Y161.772 E133.54910
G1 X99.515 Y161.772 E133.59486
G1 X72.478 Y134.735 E135.12527
G1 X72.478 Y135.878 E135.17102
G1 X98.372 Y161.772 E136.63672
G1 X97.228 Y161.772 E136.68248
G1 X72.478 Y137.022 E138.08347
G1 X72.478 Y138.165 E138.12923
G1 X96.085 Y161.772 E139.46551
G1 X94.942 Y161.772 E139.51127
G1 X72.478 Y139.308 E140.78284
G1 X72.478 Y140.451 E140.82860
G1 X93.799 Y161.772 E142.03547
G1 X92.656 Y161.772 E142.08122
G1 X72.478 Y141.594 E143.22338
G1 X72.478 Y142.737 E143.26914
G1 X91.513 Y161.772 E144.34659
G1 X90.369 Y161.772 E144.39235
G1 X72.478 Y143.881 E145.40510
G1 X72.478 Y145.024 E145.45085
G1 X89.226 Y161.772 E146.39889
G1 X88.083 Y161.772 E146.44464
G1 X72.478 Y146.167 E147.32797
G1 X72.478 Y147.310 E147.37373
G1 X86.940 Y161.772 E148.19235
G1 X85.797 Y161.772 E148.23811
G1 X72.478 Y148.453 E148.99202
G1 X72.478 Y149.596 E149.03778
G1 X84.654 Y161.772 E149.72699
G1 X83.510 Y161.772 E149.77274
G1 X72.478 Y150.740 E150.39724
G1 X72.478 Y151.883 E150.44300
G1 X82.367 Y161.772 E151.00279
G1 X81.224 Y161.772 E151.04854
G1 X72.478 Y153.026 E151.54363
G1 X72.478 Y154.169 E151.58938
G1 X75.629 Y157.321 E151.76777
G1 X73.961 Y156.796 E151.83775
G1 X72.478 Y155.312 E151.92173
G1 X72.478 Y156.455 E151.96748
G1 X72.853 Y156.831 E151.98872
G1 X76.950 Y158.642 F36000.000
G1 X80.081 Y161.772 E152.16594 F1800.000
G1 X78.938 Y161.772 E152.21169
G1 X77.455 Y160.290 E152.29561
G1 X77.418 Y161.396 E152.33990
G1 X77.795 Y161.772 E152.36121
G1 E150.36121 F2400.00000
G92 E0
G1 X121.327 Y90.098 F36000.000
G1 E2.00000 F2400.00000
G1 X121.104 Y89.935 E2.01096 F720.000
G1 X120.894 Y89.735 E2.02245
G1 X120.730 Y89.536 E2.03266
G1 X120.582 Y89.304 E2.04354
G1 X120.465 Y89.056 E2.05442
G1 X120.380 Y88.793 E2.06538
G1 X120.328 Y88.507 E2.07687
G1 X120.312 Y88.250 E2.08707
G1 X120.329 Y87.976 E2.09795
G1 X120.380 Y87.706 E2.10884
G1 X120.465 Y87.444 E2.11972
G1 X120.582 Y87.196 E2.13061
G1 X120.730 Y86.964 E2.14149
G1 X120.905 Y86.752 E2.15238
G1 X121.105 Y86.564 E2.16326
G1 X121.327 Y86.402 E2.17415
G1 X121.568 Y86.270 E2.18503
G1 X121.824 Y86.169 E2.19591
G1 X122.090 Y86.100 E2.20680
G1 X122.363 Y86.066 E2.21768
G1 X122.637 Y86.066 E2.22857 F720.000
G1 X122.910 Y86.100 E2.23945
G1 X123.176 Y86.169 E2.25034
G1 X123.432 Y86.270 E2.26122
G1 X123.673 Y86.402 E2.27210
G1 X123.896 Y86.565 E2.28306
G1 X124.106 Y86.765 E2.29455
G1 X124.270 Y86.964 E2.30476
G1 X124.418 Y87.196 E2.31564
G1 X124.535 Y87.444 E2.32652
G1 X124.620 Y87.707 E2.33748
G1 X124.672 Y87.993 E2.34897
G1 X124.688 Y88.250 E2.35917
G1 X124.671 Y88.524 E2.37006
G1 X124.620 Y88.794 E2.38094
G1 X124.535 Y89.056 E2.39182
G1 X124.418 Y89.304 E2.40271
G1 X124.270 Y89.536 E2.41359
G1 X124.095 Y89.748 E2.42448
G1 X123.895 Y89.936 E2.43536
G1 X123.673 Y90.098 E2.44625
G1 X123.432 Y90.230 E2.45713
G1 X123.176 Y90.331 E2.46801
G1 X122.910 Y90.400 E2.47890
G1 X122.637 Y90.434 E2.48979
G1 X122.363 Y90.434 E2.50067
G1 X122.090 Y90.400 E2.51155
G1 X121.824 Y90.331 E2.52244
G1 X121.568 Y90.230 E2.53332
G1 X121.380 Y90.127 E2.54183
G1 X121.080 Y90.221 F36000.000
G1 E0.54183 F2400.00000
G92 E0
G1 X122.363 Y45.434 F36000.000
G1 E2.00000 F2400.00000
G1 X122.090 Y45.400 E2.01088 F720.000
G1 X121.824 Y45.331 E2.02177
G1 X121.568 Y45.230 E2.03265
G1 X121.327 Y45.098 E2.04354
G1 X121.105 Y44.936 E2.05442
G1 X120.905 Y44.748 E2.06531
G1 X120.730 Y44.536 E2.07620
G1 X120.582 Y44.304 E2.08708
G1 X120.465 Y44.056 E2.09796
G1 X120.380 Y43.793 E2.10892
G1 X120.328 Y43.507 E2.12041
G1 X120.312 Y43.250 E2.13061
G1 X120.329 Y42.976 E2.14149
G1 X120.380 Y42.706 E2.15238
G1 X120.465 Y42.444 E2.16326
G1 X120.582 Y42.196 E2.17415
G1 X120.730 Y41.964 E2.18503
G1 X120.905 Y41.752 E2.19592
G1 X121.105 Y41.564 E2.20680
G1 X121.327 Y41.402 E2.21769
