; generated by Slic3r 1.2.9 on 2015-08-17 at 18:14:51

; external perimeters extrusion width = 0.40mm
; perimeters extrusion width = 0.40mm
; infill extrusion width = 0.60mm
; solid infill extrusion width = 0.40mm
; top infill extrusion width = 0.40mm

M107
M104 S240 ; set temperature
G28 ; home all axes
G1 Z5 F5000 ; lift nozzle

M109 S240 ; wait for temperature to be reached
G21 ; set units to millimeters
G90 ; use absolute coordinates
M82 ; use absolute distances for extrusion
G92 E0
G1 Z2.950 F36000.000
G1 E-2.00000 F2400.00000
G92 E0
G1 X68.244 Y35.911 F36000.000
G1 E2.00000 F2400.00000
G1 X69.335 Y34.691 E2.06484 F1080.000
G1 X71.250 Y34.100 E2.14419
G1 X128.750 Y34.100 E4.42156
G1 X130.339 Y34.494 E4.48639
G1 X131.559 Y35.585 E4.55123 F1080.000
G1 X132.150 Y37.500 E4.63058
G1 X132.150 Y162.500 E9.58138
G1 X131.756 Y164.089 E9.64622
G1 X130.665 Y165.309 E9.71105
G1 X128.750 Y165.900 E9.79041
G1 X71.250 Y165.900 E12.06778
G1 X69.661 Y165.506 E12.13261
G1 X68.441 Y164.415 E12.19745
G1 X67.850 Y162.500 E12.27680
G1 X67.850 Y37.500 E17.22760
G1 X68.230 Y35.969 E17.29006
G1 X69.023 Y36.196 F36000.000
G1 X69.043 Y36.127 E17.29291 F1080.000
G1 X70.101 Y35.168 E17.34948
G1 X71.250 Y34.900 E17.39620
G1 X128.750 Y34.900 E19.67357
G1 X130.123 Y35.293 E19.73014
G1 X131.082 Y36.351 E19.78670 F1080.000
G1 X131.350 Y37.500 E19.83343
G1 X131.350 Y162.500 E24.78423
G1 X130.957 Y163.873 E24.84080
G1 X129.899 Y164.832 E24.89736
G1 X128.750 Y165.100 E24.94409
G1 X71.250 Y165.100 E27.22146
G1 X69.877 Y164.707 E27.27802
G1 X68.918 Y163.649 E27.33459
G1 X68.650 Y162.500 E27.38131
G1 X68.650 Y37.500 E32.33212
G1 X69.006 Y36.254 E32.38346
G1 X69.789 Y36.526 F36000.000
G1 X69.839 Y36.383 E32.38947 F1080.000
G1 X71.250 Y35.700 E32.45155
G1 X128.750 Y35.700 E34.72892
G1 X129.867 Y36.089 E34.77578
G1 X130.550 Y37.500 E34.83786 F1080.000
G1 X130.550 Y162.500 E39.78866
G1 X130.161 Y163.617 E39.83552
G1 X128.750 Y164.300 E39.89760
G1 X71.250 Y164.300 E42.17497
G1 X70.133 Y163.911 E42.22183
G1 X69.450 Y162.500 E42.28391
G1 X69.450 Y37.500 E47.23471
G1 X69.769 Y36.583 E47.27318
G1 E45.27318 F2400.00000
G92 E0
G1 X109.762 Y161.263 F36000.000
G1 E2.00000 F2400.00000
G1 X77.133 Y161.263 E3.29231 F1800.000
G1 X77.251 Y160.899 E3.30745
G1 X77.336 Y160.453 E3.32543
G1 X77.365 Y160.000 E3.34341
G1 X77.336 Y159.547 E3.36139
G1 X77.251 Y159.101 E3.37937
G1 X77.111 Y158.669 E3.39735
G1 X76.917 Y158.256 E3.41542
G1 X76.667 Y157.866 E3.43377
G1 X76.385 Y157.526 E3.45128
G1 X76.054 Y157.215 E3.46926
G1 X75.687 Y156.948 E3.48724
G1 X75.289 Y156.729 E3.50522
G1 X74.867 Y156.562 E3.52321
G1 X74.427 Y156.449 E3.54119
G1 X73.977 Y156.392 E3.55916
G1 X73.523 Y156.392 E3.57714
G1 X73.073 Y156.449 E3.59511
G1 X72.487 Y156.599 E3.61905
G1 X72.487 Y110.902 E5.42896
G1 X73.091 Y111.053 E5.45361
G1 X73.523 Y111.108 E5.47085
G1 X73.977 Y111.108 E5.48883
G1 X74.427 Y111.051 E5.50681
G1 X74.867 Y110.938 E5.52479
G1 X75.289 Y110.771 E5.54277
G1 X75.687 Y110.552 E5.56075
G1 X76.054 Y110.285 E5.57873
G1 X76.385 Y109.974 E5.59671
G1 X76.674 Y109.625 E5.61469
G1 X76.918 Y109.241 E5.63267
G1 X77.111 Y108.831 E5.65064
G1 X77.251 Y108.399 E5.66862
G1 X77.336 Y107.953 E5.68661
G1 X77.365 Y107.500 E5.70459
G1 X77.336 Y107.047 E5.72257
G1 X77.251 Y106.601 E5.74055
G1 X77.133 Y106.237 E5.75569
G1 X122.867 Y106.237 E7.56704
G1 X122.749 Y106.601 E7.58218
G1 X122.664 Y107.047 E7.60017 F1800.000
G1 X122.635 Y107.500 E7.61815
G1 X122.662 Y107.934 E7.63539
G1 X122.748 Y108.396 E7.65396
G1 X122.889 Y108.831 E7.67208
G1 X123.082 Y109.241 E7.69006
G1 X123.326 Y109.625 E7.70804
G1 X123.606 Y109.963 E7.72545
G1 X123.943 Y110.284 E7.74388
G1 X124.313 Y110.552 E7.76198
G1 X124.711 Y110.771 E7.77996
G1 X125.136 Y110.939 E7.79808
G1 X125.591 Y111.053 E7.81665
G1 X126.023 Y111.108 E7.83389
G1 X126.477 Y111.108 E7.85187
G1 X126.927 Y111.051 E7.86984
G1 X127.513 Y110.901 E7.89378
G1 X127.513 Y156.599 E9.70374
G1 X126.927 Y156.449 E9.72768
G1 X126.477 Y156.392 E9.74565
G1 X126.023 Y156.392 E9.76363
G1 X125.573 Y156.449 E9.78161
G1 X125.133 Y156.562 E9.79959
G1 X124.711 Y156.729 E9.81757
G1 X124.313 Y156.948 E9.83555
G1 X123.943 Y157.216 E9.85365
G1 X123.606 Y157.537 E9.87208
G1 X123.326 Y157.875 E9.88949
G1 X123.082 Y158.259 E9.90747
G1 X122.889 Y158.669 E9.92545
G1 X122.749 Y159.101 E9.94342
G1 X122.664 Y159.547 E9.96141
G1 X122.635 Y160.000 E9.97939
G1 X122.664 Y160.453 E9.99737
G1 X122.749 Y160.899 E10.01535
G1 X122.867 Y161.263 E10.03049
G1 X109.822 Y161.263 E10.54716
G1 X109.822 Y162.062 F36000.000
G1 X75.688 Y162.062 E11.89908 F1800.000
G1 X76.026 Y161.654 E11.92010
G1 X76.215 Y161.355 E11.93409
G1 X76.366 Y161.036 E11.94808
G1 X76.475 Y160.700 E11.96208
G1 X76.541 Y160.353 E11.97607
G1 X76.563 Y160.000 E11.99006
G1 X76.541 Y159.647 E12.00406
G1 X76.475 Y159.300 E12.01805
G1 X76.366 Y158.964 E12.03204
G1 X76.215 Y158.644 E12.04607
G1 X76.019 Y158.338 E12.06043
G1 X75.801 Y158.074 E12.07402
G1 X75.543 Y157.832 E12.08801
G1 X75.257 Y157.625 E12.10201
G1 X74.948 Y157.454 E12.11600
G1 X74.619 Y157.324 E12.13000
G1 X74.277 Y157.236 E12.14399
G1 X73.927 Y157.192 E12.15798
G1 X73.573 Y157.192 E12.17197
G1 X73.223 Y157.236 E12.18596
G1 X72.881 Y157.324 E12.19996
G1 X72.552 Y157.454 E12.21395
G1 X72.243 Y157.625 E12.22794
G1 X71.688 Y158.028 E12.25512
G1 X71.688 Y109.469 E14.17834
G1 X72.228 Y109.868 E14.20495
G1 X72.552 Y110.046 E14.21958
G1 X72.882 Y110.176 E14.23363
G1 X73.239 Y110.266 E14.24821
G1 X73.573 Y110.308 E14.26156
G1 X73.927 Y110.308 E14.27555
G1 X74.277 Y110.264 E14.28954
G1 X74.619 Y110.176 E14.30353
G1 X74.948 Y110.046 E14.31753
G1 X75.257 Y109.875 E14.33152
G1 X75.543 Y109.668 E14.34552
G1 X75.801 Y109.426 E14.35951
G1 X76.026 Y109.154 E14.37350
G1 X76.215 Y108.855 E14.38749
G1 X76.366 Y108.536 E14.40149
G1 X76.475 Y108.200 E14.41548
G1 X76.541 Y107.853 E14.42947
G1 X76.563 Y107.500 E14.44347
G1 X76.541 Y107.147 E14.45746
G1 X76.475 Y106.800 E14.47145
G1 X76.366 Y106.464 E14.48545
G1 X76.215 Y106.145 E14.49944
G1 X76.026 Y105.846 E14.51343
G1 X75.688 Y105.438 E14.53445
G1 X124.312 Y105.438 E16.46028
G1 X123.974 Y105.846 E16.48130
G1 X123.785 Y106.145 E16.49529 F1800.000
G1 X123.634 Y106.464 E16.50928
G1 X123.525 Y106.800 E16.52328
G1 X123.459 Y107.147 E16.53727
G1 X123.437 Y107.500 E16.55126
G1 X123.458 Y107.836 E16.56461
G1 X123.525 Y108.198 E16.57919
G1 X123.634 Y108.536 E16.59324
G1 X123.785 Y108.855 E16.60723
G1 X123.974 Y109.154 E16.62122
G1 X124.191 Y109.416 E16.63472
G1 X124.456 Y109.667 E16.64917
G1 X124.743 Y109.875 E16.66320
G1 X125.052 Y110.046 E16.67720
G1 X125.382 Y110.176 E16.69124
G1 X125.739 Y110.266 E16.70582
G1 X126.073 Y110.308 E16.71917
G1 X126.427 Y110.308 E16.73316
G1 X126.777 Y110.264 E16.74715
G1 X127.119 Y110.176 E16.76115
G1 X127.448 Y110.046 E16.77514
G1 X127.757 Y109.875 E16.78913
G1 X128.312 Y109.472 E16.81631
G1 X128.312 Y158.028 E18.73942
G1 X127.757 Y157.625 E18.76659
G1 X127.448 Y157.454 E18.78058
G1 X127.119 Y157.324 E18.79458
G1 X126.777 Y157.236 E18.80857
G1 X126.427 Y157.192 E18.82256
G1 X126.073 Y157.192 E18.83656
G1 X125.723 Y157.236 E18.85055
G1 X125.381 Y157.324 E18.86454
G1 X125.052 Y157.454 E18.87853
G1 X124.743 Y157.625 E18.89253
G1 X124.456 Y157.833 E18.90656
G1 X124.191 Y158.084 E18.92101
G1 X123.974 Y158.346 E18.93451
G1 X123.785 Y158.645 E18.94850
G1 X123.634 Y158.964 E18.96249
G1 X123.525 Y159.300 E18.97649
G1 X123.459 Y159.647 E18.99048
G1 X123.437 Y160.000 E19.00447
G1 X123.459 Y160.353 E19.01847
G1 X123.525 Y160.700 E19.03246
G1 X123.634 Y161.036 E19.04645
G1 X123.785 Y161.355 E19.06045
G1 X123.974 Y161.654 E19.07444
G1 X124.312 Y162.062 E19.09545
G1 X109.882 Y162.062 E19.66699
G1 X109.622 Y161.716 F36000.000
G1 E17.66699 F2400.00000
G92 E0
G1 X127.263 Y105.164 F36000.000
G1 E2.00000 F2400.00000
G1 X127.683 Y105.273 E2.01721 F1800.000
G1 X128.268 Y105.482 E2.04179
G1 X128.436 Y105.936 E2.06096
G1 X128.579 Y106.481 E2.08327
G1 E0.08327 F2400.00000
G92 E0
G1 X128.579 Y161.019 F36000.000
G1 E2.00000 F2400.00000
G1 X128.436 Y161.564 E2.02230 F1800.000
G1 X128.268 Y162.018 E2.04148
G1 X127.683 Y162.227 E2.06606
G1 X127.263 Y162.336 E2.08327
G1 E0.08327 F2400.00000
G92 E0
G1 X72.737 Y162.336 F36000.000
G1 E2.00000 F2400.00000
G1 X72.317 Y162.227 E2.01721 F1800.000
G1 X71.732 Y162.018 E2.04179
G1 X71.564 Y161.564 E2.06096
G1 X71.421 Y161.019 E2.08327
G1 E0.08327 F2400.00000
G92 E0
G1 X71.421 Y106.481 F36000.000
G1 E2.00000 F2400.00000
G1 X71.564 Y105.936 E2.02230 F1800.000
G1 X71.732 Y105.482 E2.04148
G1 X72.317 Y105.273 E2.06606
G1 X72.737 Y105.164 E2.08327
G1 E0.08327 F2400.00000
G92 E0
G1 X122.184 Y107.099 F36000.000
G1 E2.00000 F2400.00000
G1 X121.812 Y106.728 E2.02090 F1800.000
G1 X120.677 Y106.728 E2.06606
G1 X122.186 Y108.237 E2.15091
G1 X122.898 Y110.084 F36000.000
G1 X119.541 Y106.728 E2.33968 F1800.000
G1 X118.405 Y106.728 E2.38484
G1 X127.022 Y115.345 E2.86941
G1 X127.022 Y114.209 E2.91457
G1 X123.661 Y110.847 E3.10361
G1 X125.509 Y111.560 F36000.000
G1 X127.022 Y113.073 E3.18874 F1800.000
G1 X127.022 Y111.938 E3.23390
G1 X126.645 Y111.560 E3.25511
G1 X127.022 Y116.480 F36000.000
G1 X117.270 Y106.728 E3.80355 F1800.000
G1 X116.134 Y106.728 E3.84871
G1 X127.022 Y117.616 E4.46102
G1 X127.022 Y118.752 E4.50618
G1 X114.998 Y106.728 E5.18234
G1 X113.862 Y106.728 E5.22750
G1 X127.022 Y119.888 E5.96753
G1 X127.022 Y121.023 E6.01269
G1 X112.727 Y106.728 E6.81659
G1 X111.591 Y106.728 E6.86175
G1 X127.022 Y122.159 E7.72951
G1 X127.022 Y123.295 E7.77467
G1 X110.455 Y106.728 E8.70629
G1 X109.320 Y106.728 E8.75145
G1 X127.022 Y124.430 E9.74694
G1 X127.022 Y125.566 E9.79210
G1 X108.184 Y106.728 E10.85145
G1 X107.048 Y106.728 E10.89661
G1 X127.022 Y126.702 E12.01982
G1 X127.022 Y127.837 E12.06498
G1 X105.913 Y106.728 E13.25206
G1 X104.777 Y106.728 E13.29722
G1 X127.022 Y128.973 E14.54817
G1 X127.022 Y130.109 E14.59332
G1 X103.641 Y106.728 E15.90813
G1 X102.506 Y106.728 E15.95329
G1 X127.022 Y131.244 E17.33196
G1 X127.022 Y132.380 E17.37712
G1 X101.370 Y106.728 E18.81966
G1 X100.234 Y106.728 E18.86482
G1 X127.022 Y133.516 E20.37122
G1 X127.022 Y134.652 E20.41638
G1 X99.098 Y106.728 E21.98664
G1 X97.963 Y106.728 E22.03180
G1 X127.022 Y135.787 E23.66593
G1 X127.022 Y136.923 E23.71108
G1 X96.827 Y106.728 E25.40908
G1 X95.691 Y106.728 E25.45424
G1 X127.022 Y138.059 E27.21609
G1 X127.022 Y139.194 E27.26125
G1 X94.556 Y106.728 E29.08697
G1 X93.420 Y106.728 E29.13213
G1 X127.022 Y140.330 E31.02171
G1 X127.022 Y141.466 E31.06687
G1 X92.284 Y106.728 E33.02032
G1 X91.149 Y106.728 E33.06548
G1 X127.022 Y142.601 E35.08279
G1 X127.022 Y143.737 E35.12795
G1 X90.013 Y106.728 E37.20913
G1 X88.877 Y106.728 E37.25428
G1 X127.022 Y144.873 E39.39932
G1 X127.022 Y146.008 E39.44448
G1 X87.742 Y106.728 E41.65339
G1 X86.606 Y106.728 E41.69855
G1 X127.022 Y147.144 E43.97131
G1 X127.022 Y148.280 E44.01647
G1 X85.470 Y106.728 E46.35310
G1 X84.334 Y106.728 E46.39826
G1 X127.022 Y149.416 E48.79876
G1 X127.022 Y150.551 E48.84392
G1 X83.199 Y106.728 E51.30828
G1 X82.063 Y106.728 E51.35344
G1 X127.022 Y151.687 E53.88166
G1 X127.022 Y152.823 E53.92682
G1 X80.927 Y106.728 E56.51891
G1 X79.792 Y106.728 E56.56406
G1 X127.022 Y153.958 E59.22002
G1 X127.022 Y155.094 E59.26518
G1 X78.656 Y106.728 E61.98499
G1 X77.838 Y107.046 E62.01987
G1 X126.696 Y155.903 E64.76730
G1 X125.626 Y155.969 E64.80993
G1 X77.775 Y108.118 E67.50076
G1 X77.514 Y108.993 E67.53707
G1 X124.759 Y156.237 E70.19379
G1 X124.022 Y156.637 E70.22711
G1 X77.113 Y109.728 E72.86496
G1 X76.599 Y110.349 E72.89703
G1 X123.401 Y157.151 E75.52888
G1 X122.887 Y157.772 E75.56095
G1 X75.978 Y110.863 E78.19881
G1 X75.241 Y111.263 E78.23212
G1 X122.486 Y158.507 E80.88884
G1 X122.225 Y159.382 E80.92515
G1 X74.374 Y111.531 E83.61598
G1 X73.304 Y111.597 E83.65862
G1 X122.162 Y160.454 E86.40605
G1 X121.344 Y160.772 E86.44093
G1 X72.978 Y112.406 E89.16075
G1 X72.978 Y113.542 E89.20590
G1 X120.208 Y160.772 E91.86185
G1 X119.073 Y160.772 E91.90701
G1 X72.978 Y114.677 E94.49910
G1 X72.978 Y115.813 E94.54425
G1 X117.937 Y160.772 E97.07247
G1 X116.801 Y160.772 E97.11763
G1 X72.978 Y116.949 E99.58199
G1 X72.978 Y118.085 E99.62715
G1 X115.665 Y160.772 E102.02764
G1 X114.530 Y160.772 E102.07280
G1 X72.978 Y119.220 E104.40943
G1 X72.978 Y120.356 E104.45459
G1 X113.394 Y160.772 E106.72735
G1 X112.258 Y160.772 E106.77251
G1 X72.978 Y121.492 E108.98141
G1 X72.978 Y122.627 E109.02657
G1 X111.123 Y160.772 E111.17160
G1 X109.987 Y160.772 E111.21676
G1 X72.978 Y123.763 E113.29794
G1 X72.978 Y124.899 E113.34309
G1 X108.851 Y160.772 E115.36040
G1 X107.716 Y160.772 E115.40556
G1 X72.978 Y126.034 E117.35901
G1 X72.978 Y127.170 E117.40416
G1 X106.580 Y160.772 E119.29375
G1 X105.444 Y160.772 E119.33890
G1 X72.978 Y128.306 E121.16462
G1 X72.978 Y129.441 E121.20978
G1 X104.309 Y160.772 E122.97163
G1 X103.173 Y160.772 E123.01679
G1 X72.978 Y130.577 E124.71478
G1 X72.978 Y131.713 E124.75994
G1 X102.037 Y160.772 E126.39406
G1 X100.901 Y160.772 E126.43922
G1 X72.978 Y132.849 E128.00948
G1 X72.978 Y133.984 E128.05464
G1 X99.766 Y160.772 E129.56104
G1 X98.630 Y160.772 E129.60620
G1 X72.978 Y135.120 E131.04873
G1 X72.978 Y136.256 E131.09389
G1 X97.494 Y160.772 E132.47256
G1 X96.359 Y160.772 E132.51771
G1 X72.978 Y137.391 E133.83252
G1 X72.978 Y138.527 E133.87768
G1 X95.223 Y160.772 E135.12862
G1 X94.087 Y160.772 E135.17378
G1 X72.978 Y139.663 E136.36085
G1 X72.978 Y140.798 E136.40601
G1 X92.952 Y160.772 E137.52923
G1 X91.816 Y160.772 E137.57438
G1 X72.978 Y141.934 E138.63373
G1 X72.978 Y143.070 E138.67889
G1 X90.680 Y160.772 E139.67438
G1 X89.545 Y160.772 E139.71953
G1 X72.978 Y144.205 E140.65116
G1 X72.978 Y145.341 E140.69631
G1 X88.409 Y160.772 E141.56407
G1 X87.273 Y160.772 E141.60923
G1 X72.978 Y146.477 E142.41312
G1 X72.978 Y147.612 E142.45828
G1 X86.138 Y160.772 E143.19831
G1 X85.002 Y160.772 E143.24347
G1 X72.978 Y148.748 E143.91963
G1 X72.978 Y149.884 E143.96479
G1 X83.866 Y160.772 E144.57709
G1 X82.730 Y160.772 E144.62225
G1 X72.978 Y151.020 E145.17069
G1 X72.978 Y152.155 E145.21585
G1 X81.595 Y160.772 E145.70042
G1 X80.459 Y160.772 E145.74558
G1 X72.978 Y153.291 E146.16629
G1 X72.978 Y154.427 E146.21145
G1 X74.491 Y155.940 E146.29657
G1 X73.355 Y155.940 E146.34176
G1 X72.978 Y155.562 E146.36298
G1 X77.817 Y159.266 F36000.000
G1 X79.323 Y160.772 E146.44767 F1800.000
G1 X78.188 Y160.772 E146.49282
G1 X77.816 Y160.401 E146.51372
G1 E144.51372 F2400.00000
G92 E0
G1 X119.641 Y87.893 F36000.000
G1 E2.00000 F2400.00000
G1 X119.534 Y88.375 E2.01956 F1800.000
G1 X119.510 Y88.750 E2.03443
G1 X119.532 Y89.104 E2.04849
G1 X119.603 Y89.489 E2.06397
G1 X119.720 Y89.851 E2.07904
G1 X119.880 Y90.190 E2.09391
G1 X120.081 Y90.507 E2.10877
G1 X120.307 Y90.781 E2.12284
G1 X120.590 Y91.051 E2.13832
G1 X120.898 Y91.274 E2.15339
G1 X121.227 Y91.455 E2.16826
G1 X121.576 Y91.594 E2.18313
G1 X121.940 Y91.687 E2.19800
G1 X122.312 Y91.734 E2.21287
G1 X122.723 Y91.734 E2.22915
G1 X122.664 Y92.047 E2.24178
G1 X122.635 Y92.500 E2.25975
G1 X122.664 Y92.953 E2.27773
G1 X122.749 Y93.399 E2.29572
G1 X122.867 Y93.763 E2.31086
G1 X77.133 Y93.763 E4.12221
G1 X77.251 Y93.399 E4.13735
G1 X77.336 Y92.953 E4.15533
G1 X77.365 Y92.500 E4.17331
G1 X77.336 Y92.047 E4.19129
G1 X77.277 Y91.734 E4.20391
G1 X77.688 Y91.734 E4.22020
G1 X78.060 Y91.687 E4.23507
G1 X78.424 Y91.594 E4.24994
G1 X78.778 Y91.453 E4.26501
G1 X79.119 Y91.262 E4.28048
G1 X79.406 Y91.054 E4.29454
G1 X79.680 Y90.797 E4.30942
G1 X79.919 Y90.507 E4.32429
G1 X80.120 Y90.190 E4.33916
G1 X80.280 Y89.851 E4.35403
G1 X80.396 Y89.494 E4.36890
G1 X80.466 Y89.125 E4.38377
G1 X80.490 Y88.750 E4.39864
G1 X80.466 Y88.375 E4.41351
G1 X80.396 Y88.006 E4.42838
G1 X80.280 Y87.649 E4.44325
G1 X80.120 Y87.310 E4.45812
G1 X79.930 Y87.010 E4.47218
G1 X79.683 Y86.707 E4.48766
G1 X79.406 Y86.446 E4.50273
G1 X79.102 Y86.225 E4.51761
G1 X78.773 Y86.045 E4.53248
G1 X78.424 Y85.907 E4.54734
G1 X78.060 Y85.813 E4.56222
G1 X77.688 Y85.766 E4.57709
G1 X77.312 Y85.766 E4.59195
G1 X76.940 Y85.813 E4.60683
G1 X76.576 Y85.907 E4.62171
G1 X76.227 Y86.045 E4.63656
G1 X75.898 Y86.225 E4.65143
G1 X75.594 Y86.446 E4.66631
