; generated by Slic3r 1.2.9 on 2015-08-11 at 18:04:40

; external perimeters extrusion width = 0.40mm
; perimeters extrusion width = 0.40mm
; infill extrusion width = 0.60mm
; solid infill extrusion width = 0.40mm
; top infill extrusion width = 0.40mm

M107
M104 S240 ; set temperature
G28 ; home all axes
G1 Z5 F5000 ; lift nozzle

M109 S240 ; wait for temperature to be reached
G21 ; set units to millimeters
G90 ; use absolute coordinates
M82 ; use absolute distances for extrusion
G92 E0
G1 Z0.350 F36000.000
G1 E-2.00000 F2400.00000
G92 E0
G1 X68.244 Y35.911 F36000.000
G1 E2.00000 F2400.00000
G1 X69.335 Y34.691 E2.06484 F1080.000
G1 X71.250 Y34.100 E2.14419
G1 X128.750 Y34.100 E4.42156
G1 X130.339 Y34.494 E4.48639
G1 X131.559 Y35.585 E4.55123 F1080.000
G1 X132.150 Y37.500 E4.63058
G1 X132.150 Y162.500 E9.58138
G1 X131.756 Y164.089 E9.64622
G1 X130.665 Y165.309 E9.71105
G1 X128.750 Y165.900 E9.79041
G1 X71.250 Y165.900 E12.06778
G1 X69.661 Y165.506 E12.13261
G1 X68.441 Y164.415 E12.19745
G1 X67.850 Y162.500 E12.27680
G1 X67.850 Y37.500 E17.22760
G1 X68.230 Y35.969 E17.29006
G1 X69.023 Y36.196 F36000.000
G1 X69.043 Y36.127 E17.29291 F1080.000
G1 X70.101 Y35.168 E17.34948
G1 X71.250 Y34.900 E17.39620
G1 X128.750 Y34.900 E19.67357
G1 X130.123 Y35.293 E19.73014
G1 X131.082 Y36.351 E19.78670 F1080.000
G1 X131.350 Y37.500 E19.83343
G1 X131.350 Y162.500 E24.78423
G1 X130.957 Y163.873 E24.84080
G1 X129.899 Y164.832 E24.89736
G1 X128.750 Y165.100 E24.94409
G1 X71.250 Y165.100 E27.22146
G1 X69.877 Y164.707 E27.27802
G1 X68.918 Y163.649 E27.33459
G1 X68.650 Y162.500 E27.38131
G1 X68.650 Y37.500 E32.33212
G1 X69.006 Y36.254 E32.38346
G1 X69.789 Y36.526 F36000.000
G1 X69.839 Y36.383 E32.38947 F1080.000
G1 X71.250 Y35.700 E32.45155
G1 X128.750 Y35.700 E34.72892
G1 X129.867 Y36.089 E34.77578
G1 X130.550 Y37.500 E34.83786 F1080.000
G1 X130.550 Y162.500 E39.78866
G1 X130.161 Y163.617 E39.83552
G1 X128.750 Y164.300 E39.89760
G1 X71.250 Y164.300 E42.17497
G1 X70.133 Y163.911 E42.22183
G1 X69.450 Y162.500 E42.28391
G1 X69.450 Y37.500 E47.23471
G1 X69.769 Y36.583 E47.27318
G1 E45.27318 F2400.00000
G92 E0
G1 X104.228 Y106.237 F36000.000
G1 E2.00000 F2400.00000
G1 X122.867 Y106.237 E2.73822 F1800.000
G1 X122.749 Y106.601 E2.75336
G1 X122.664 Y107.047 E2.77134 F1800.000
G1 X122.635 Y107.500 E2.78932
G1 X122.662 Y107.934 E2.80656
G1 X122.748 Y108.396 E2.82513
G1 X122.889 Y108.831 E2.84326
G1 X123.083 Y109.244 E2.86133
G1 X123.333 Y109.634 E2.87968
G1 X123.615 Y109.974 E2.89719
G1 X123.946 Y110.285 E2.91517
G1 X124.313 Y110.552 E2.93315
G1 X124.711 Y110.771 E2.95113
G1 X125.136 Y110.939 E2.96926
G1 X125.591 Y111.053 E2.98782
G1 X126.023 Y111.108 E3.00507
G1 X126.477 Y111.108 E3.02304
G1 X126.927 Y111.051 E3.04102
G1 X127.513 Y110.901 E3.06495
G1 X127.513 Y156.599 E4.87492
G1 X126.927 Y156.449 E4.89886
G1 X126.477 Y156.392 E4.91683
G1 X126.023 Y156.392 E4.93481
G1 X125.573 Y156.449 E4.95279
G1 X125.133 Y156.562 E4.97076
G1 X124.711 Y156.729 E4.98875
G1 X124.313 Y156.948 E5.00673
G1 X123.943 Y157.216 E5.02483
G1 X123.606 Y157.537 E5.04326
G1 X123.326 Y157.875 E5.06067
G1 X123.082 Y158.259 E5.07864
G1 X122.889 Y158.669 E5.09662
G1 X122.749 Y159.101 E5.11460
G1 X122.664 Y159.547 E5.13258
G1 X122.635 Y160.000 E5.15056
G1 X122.664 Y160.453 E5.16854
G1 X122.749 Y160.899 E5.18652
G1 X122.867 Y161.263 E5.20167
G1 X77.133 Y161.263 E7.01302
G1 X77.251 Y160.899 E7.02816
G1 X77.336 Y160.453 E7.04614
G1 X77.365 Y160.000 E7.06412
G1 X77.336 Y159.547 E7.08210
G1 X77.251 Y159.101 E7.10008
G1 X77.111 Y158.669 E7.11806
G1 X76.917 Y158.256 E7.13614
G1 X76.667 Y157.866 E7.15449
G1 X76.385 Y157.526 E7.17199
G1 X76.054 Y157.215 E7.18997
G1 X75.687 Y156.948 E7.20796
G1 X75.289 Y156.729 E7.22594
G1 X74.867 Y156.562 E7.24392
G1 X74.427 Y156.449 E7.26190
G1 X73.977 Y156.392 E7.27987
G1 X73.523 Y156.392 E7.29785
G1 X73.073 Y156.449 E7.31583
G1 X72.487 Y156.599 E7.33976
G1 X72.487 Y110.902 E9.14968
G1 X73.091 Y111.053 E9.17433
G1 X73.523 Y111.108 E9.19157
G1 X73.977 Y111.108 E9.20955
G1 X74.427 Y111.051 E9.22752
G1 X74.867 Y110.938 E9.24551
G1 X75.289 Y110.771 E9.26348
G1 X75.687 Y110.552 E9.28146
G1 X76.054 Y110.285 E9.29945
G1 X76.385 Y109.974 E9.31743
G1 X76.674 Y109.625 E9.33540
G1 X76.918 Y109.241 E9.35338
G1 X77.111 Y108.831 E9.37136
G1 X77.251 Y108.399 E9.38934
G1 X77.336 Y107.953 E9.40732
G1 X77.365 Y107.500 E9.42530
G1 X77.336 Y107.047 E9.44328
G1 X77.251 Y106.601 E9.46126
G1 X77.133 Y106.237 E9.47640
G1 X104.168 Y106.237 E10.54716
G1 X104.168 Y105.437 F36000.000
G1 X124.312 Y105.437 E11.34500 F1800.000
G1 X123.974 Y105.846 E11.36602
G1 X123.785 Y106.145 E11.38001 F1800.000
G1 X123.634 Y106.464 E11.39400
G1 X123.525 Y106.800 E11.40799
G1 X123.459 Y107.147 E11.42199
G1 X123.437 Y107.500 E11.43598
G1 X123.458 Y107.836 E11.44933
G1 X123.525 Y108.198 E11.46391
G1 X123.634 Y108.536 E11.47796
G1 X123.785 Y108.856 E11.49198
G1 X123.981 Y109.162 E11.50635
G1 X124.199 Y109.426 E11.51993
G1 X124.457 Y109.668 E11.53392
G1 X124.743 Y109.875 E11.54792
G1 X125.052 Y110.046 E11.56191
G1 X125.382 Y110.176 E11.57596
G1 X125.739 Y110.266 E11.59054
G1 X126.073 Y110.308 E11.60389
G1 X126.427 Y110.308 E11.61788
G1 X126.777 Y110.264 E11.63187
G1 X127.119 Y110.176 E11.64587
G1 X127.448 Y110.046 E11.65986
G1 X127.757 Y109.875 E11.67385
G1 X128.313 Y109.472 E11.70102
G1 X128.313 Y158.028 E13.62414
G1 X127.757 Y157.625 E13.65131
G1 X127.448 Y157.454 E13.66531
G1 X127.119 Y157.324 E13.67930
G1 X126.777 Y157.236 E13.69329
G1 X126.427 Y157.192 E13.70728
G1 X126.073 Y157.192 E13.72128
G1 X125.723 Y157.236 E13.73527
G1 X125.381 Y157.324 E13.74926
G1 X125.052 Y157.454 E13.76325
G1 X124.743 Y157.625 E13.77725
G1 X124.456 Y157.833 E13.79128
G1 X124.191 Y158.084 E13.80573
G1 X123.974 Y158.346 E13.81922
G1 X123.785 Y158.645 E13.83322
G1 X123.634 Y158.964 E13.84721
G1 X123.525 Y159.300 E13.86120
G1 X123.459 Y159.647 E13.87520
G1 X123.437 Y160.000 E13.88919
G1 X123.459 Y160.353 E13.90318
G1 X123.525 Y160.700 E13.91718
G1 X123.634 Y161.036 E13.93117
G1 X123.785 Y161.355 E13.94516
G1 X123.974 Y161.654 E13.95916
G1 X124.312 Y162.063 E13.98017
G1 X75.688 Y162.063 E15.90601
G1 X76.026 Y161.654 E15.92703
G1 X76.215 Y161.355 E15.94102
G1 X76.366 Y161.036 E15.95501
G1 X76.475 Y160.700 E15.96901
G1 X76.541 Y160.353 E15.98300
G1 X76.563 Y160.000 E15.99699
G1 X76.541 Y159.647 E16.01099
G1 X76.475 Y159.300 E16.02498
G1 X76.366 Y158.964 E16.03897
G1 X76.215 Y158.644 E16.05300
G1 X76.019 Y158.338 E16.06736
G1 X75.801 Y158.074 E16.08095
G1 X75.543 Y157.832 E16.09494
G1 X75.257 Y157.625 E16.10893
G1 X74.948 Y157.454 E16.12293
G1 X74.619 Y157.324 E16.13692
G1 X74.277 Y157.236 E16.15092
G1 X73.927 Y157.192 E16.16491
G1 X73.573 Y157.192 E16.17890
G1 X73.223 Y157.236 E16.19289
G1 X72.881 Y157.324 E16.20688
G1 X72.552 Y157.454 E16.22088
G1 X72.243 Y157.625 E16.23487
G1 X71.687 Y158.028 E16.26204
G1 X71.687 Y109.469 E18.18527
G1 X72.229 Y109.868 E18.21188
G1 X72.552 Y110.046 E18.22651
G1 X72.882 Y110.176 E18.24056
G1 X73.239 Y110.266 E18.25514
G1 X73.573 Y110.308 E18.26849
G1 X73.927 Y110.308 E18.28248
G1 X74.277 Y110.264 E18.29647
G1 X74.619 Y110.176 E18.31046
G1 X74.948 Y110.046 E18.32446
G1 X75.257 Y109.875 E18.33845
G1 X75.543 Y109.668 E18.35245
G1 X75.801 Y109.426 E18.36644
G1 X76.026 Y109.154 E18.38043
G1 X76.215 Y108.855 E18.39442
G1 X76.366 Y108.536 E18.40841
G1 X76.475 Y108.200 E18.42241
G1 X76.541 Y107.853 E18.43640
G1 X76.563 Y107.500 E18.45040
G1 X76.541 Y107.147 E18.46439
G1 X76.475 Y106.800 E18.47838
G1 X76.366 Y106.464 E18.49238
G1 X76.215 Y106.145 E18.50637
G1 X76.026 Y105.846 E18.52036
G1 X75.688 Y105.437 E18.54138
G1 X104.108 Y105.437 E19.66700
G1 X104.368 Y105.784 F36000.000
G1 E17.66700 F2400.00000
G92 E0
G1 X127.263 Y105.164 F36000.000
G1 E2.00000 F2400.00000
G1 X127.683 Y105.273 E2.01721 F1800.000
G1 X128.268 Y105.482 E2.04179
G1 X128.436 Y105.936 E2.06097
G1 X128.579 Y106.481 E2.08327
G1 E0.08327 F2400.00000
G92 E0
G1 X128.579 Y161.019 F36000.000
G1 E2.00000 F2400.00000
G1 X128.436 Y161.564 E2.02231 F1800.000
G1 X128.268 Y162.018 E2.04148
G1 X127.683 Y162.227 E2.06606
G1 X127.263 Y162.336 E2.08327
G1 E0.08327 F2400.00000
G92 E0
G1 X72.737 Y162.336 F36000.000
G1 E2.00000 F2400.00000
G1 X72.317 Y162.227 E2.01721 F1800.000
G1 X71.732 Y162.018 E2.04179
G1 X71.564 Y161.564 E2.06096
G1 X71.421 Y161.019 E2.08327
G1 E0.08327 F2400.00000
G92 E0
G1 X71.421 Y106.481 F36000.000
G1 E2.00000 F2400.00000
G1 X71.564 Y105.936 E2.02231 F1800.000
G1 X71.732 Y105.482 E2.04148
G1 X72.317 Y105.273 E2.06606
G1 X72.737 Y105.164 E2.08327
G1 E0.08327 F2400.00000
G92 E0
G1 X122.184 Y107.099 F36000.000
G1 E2.00000 F2400.00000
G1 X121.812 Y106.728 E2.02090 F1800.000
G1 X120.677 Y106.728 E2.06606
G1 X122.186 Y108.237 E2.15091
G1 X122.901 Y110.088 F36000.000
G1 X119.541 Y106.728 E2.33989 F1800.000
G1 X118.405 Y106.728 E2.38505
G1 X127.022 Y115.345 E2.86962
G1 X127.022 Y114.209 E2.91478
G1 X123.661 Y110.847 E3.10382
G1 X125.509 Y111.560 F36000.000
G1 X127.022 Y113.073 E3.18895 F1800.000
G1 X127.022 Y111.938 E3.23411
G1 X126.645 Y111.560 E3.25532
G1 X127.022 Y116.480 F36000.000
G1 X117.270 Y106.728 E3.80376 F1800.000
G1 X116.134 Y106.728 E3.84892
G1 X127.022 Y117.616 E4.46123
G1 X127.022 Y118.752 E4.50638
G1 X114.998 Y106.728 E5.18255
G1 X113.862 Y106.728 E5.22771
G1 X127.022 Y119.888 E5.96774
G1 X127.022 Y121.023 E6.01290
G1 X112.727 Y106.728 E6.81680
G1 X111.591 Y106.728 E6.86196
G1 X127.022 Y122.159 E7.72972
G1 X127.022 Y123.295 E7.77488
G1 X110.455 Y106.728 E8.70650
G1 X109.320 Y106.728 E8.75166
G1 X127.022 Y124.430 E9.74715
G1 X127.022 Y125.566 E9.79231
G1 X108.184 Y106.728 E10.85166
G1 X107.048 Y106.728 E10.89682
G1 X127.022 Y126.702 E12.02004
G1 X127.022 Y127.837 E12.06520
G1 X105.913 Y106.728 E13.25228
G1 X104.777 Y106.728 E13.29744
G1 X127.022 Y128.973 E14.54838
G1 X127.022 Y130.109 E14.59354
G1 X103.641 Y106.728 E15.90835
G1 X102.506 Y106.728 E15.95351
G1 X127.022 Y131.244 E17.33218
G1 X127.022 Y132.380 E17.37734
G1 X101.370 Y106.728 E18.81988
G1 X100.234 Y106.728 E18.86503
G1 X127.022 Y133.516 E20.37144
G1 X127.022 Y134.652 E20.41659
G1 X99.098 Y106.728 E21.98686
G1 X97.963 Y106.728 E22.03202
G1 X127.022 Y135.787 E23.66615
G1 X127.022 Y136.923 E23.71131
G1 X96.827 Y106.728 E25.40930
G1 X95.691 Y106.728 E25.45446
G1 X127.022 Y138.059 E27.21632
G1 X127.022 Y139.194 E27.26147
G1 X94.556 Y106.728 E29.08720
G1 X93.420 Y106.728 E29.13235
G1 X127.022 Y140.330 E31.02194
G1 X127.022 Y141.466 E31.06710
G1 X92.284 Y106.728 E33.02055
G1 X91.149 Y106.728 E33.06571
G1 X127.022 Y142.601 E35.08302
G1 X127.022 Y143.737 E35.12818
G1 X90.013 Y106.728 E37.20936
G1 X88.877 Y106.728 E37.25452
G1 X127.022 Y144.873 E39.39956
G1 X127.022 Y146.008 E39.44472
G1 X87.742 Y106.728 E41.65362
G1 X86.606 Y106.728 E41.69878
G1 X127.022 Y147.144 E43.97155
G1 X127.022 Y148.280 E44.01671
G1 X85.470 Y106.728 E46.35334
G1 X84.334 Y106.728 E46.39850
G1 X127.022 Y149.416 E48.79900
G1 X127.022 Y150.551 E48.84416
G1 X83.199 Y106.728 E51.30852
G1 X82.063 Y106.728 E51.35368
G1 X127.022 Y151.687 E53.88190
G1 X127.022 Y152.823 E53.92706
G1 X80.927 Y106.728 E56.51915
G1 X79.792 Y106.728 E56.56431
G1 X127.022 Y153.958 E59.22026
G1 X127.022 Y155.094 E59.26542
G1 X78.656 Y106.728 E61.98524
G1 X77.838 Y107.046 E62.02012
G1 X126.696 Y155.903 E64.76755
G1 X125.626 Y155.969 E64.81019
G1 X77.775 Y108.118 E67.50102
G1 X77.514 Y108.993 E67.53733
G1 X124.759 Y156.237 E70.19405
G1 X124.022 Y156.637 E70.22736
G1 X77.113 Y109.728 E72.86522
G1 X76.599 Y110.349 E72.89729
G1 X123.401 Y157.151 E75.52914
G1 X122.887 Y157.772 E75.56121
G1 X75.978 Y110.863 E78.19907
G1 X75.241 Y111.263 E78.23238
G1 X122.486 Y158.507 E80.88911
G1 X122.225 Y159.382 E80.92542
G1 X74.374 Y111.531 E83.61625
G1 X73.304 Y111.597 E83.65889
G1 X122.162 Y160.454 E86.40632
G1 X121.344 Y160.772 E86.44120
G1 X72.978 Y112.406 E89.16102
G1 X72.978 Y113.542 E89.20618
G1 X120.208 Y160.772 E91.86213
G1 X119.073 Y160.772 E91.90728
G1 X72.978 Y114.677 E94.49937
G1 X72.978 Y115.813 E94.54453
G1 X117.937 Y160.772 E97.07275
G1 X116.801 Y160.772 E97.11791
G1 X72.978 Y116.949 E99.58227
G1 X72.978 Y118.085 E99.62743
G1 X115.665 Y160.772 E102.02792
G1 X114.530 Y160.772 E102.07308
G1 X72.978 Y119.220 E104.40971
G1 X72.978 Y120.356 E104.45487
G1 X113.394 Y160.772 E106.72764
G1 X112.258 Y160.772 E106.77280
G1 X72.978 Y121.492 E108.98170
G1 X72.978 Y122.627 E109.02686
G1 X111.123 Y160.772 E111.17189
G1 X109.987 Y160.772 E111.21705
G1 X72.978 Y123.763 E113.29823
G1 X72.978 Y124.899 E113.34339
G1 X108.851 Y160.772 E115.36070
G1 X107.716 Y160.772 E115.40586
G1 X72.978 Y126.034 E117.35930
G1 X72.978 Y127.170 E117.40446
G1 X106.580 Y160.772 E119.29404
G1 X105.444 Y160.772 E119.33920
G1 X72.978 Y128.306 E121.16492
G1 X72.978 Y129.441 E121.21008
G1 X104.309 Y160.772 E122.97193
G1 X103.173 Y160.772 E123.01709
G1 X72.978 Y130.577 E124.71508
G1 X72.978 Y131.713 E124.76024
G1 X102.037 Y160.772 E126.39436
G1 X100.901 Y160.772 E126.43952
G1 X72.978 Y132.849 E128.00978
G1 X72.978 Y133.984 E128.05494
G1 X99.766 Y160.772 E129.56134
G1 X98.630 Y160.772 E129.60650
G1 X72.978 Y135.120 E131.04903
G1 X72.978 Y136.256 E131.09419
G1 X97.494 Y160.772 E132.47286
G1 X96.359 Y160.772 E132.51802
G1 X72.978 Y137.391 E133.83283
G1 X72.978 Y138.527 E133.87799
G1 X95.223 Y160.772 E135.12893
G1 X94.087 Y160.772 E135.17409
G1 X72.978 Y139.663 E136.36116
G1 X72.978 Y140.798 E136.40632
G1 X92.952 Y160.772 E137.52954
G1 X91.816 Y160.772 E137.57469
G1 X72.978 Y141.934 E138.63404
G1 X72.978 Y143.070 E138.67920
G1 X90.680 Y160.772 E139.67469
G1 X89.545 Y160.772 E139.71985
G1 X72.978 Y144.205 E140.65147
G1 X72.978 Y145.341 E140.69663
G1 X88.409 Y160.772 E141.56438
G1 X87.273 Y160.772 E141.60954
G1 X72.978 Y146.477 E142.41344
G1 X72.978 Y147.613 E142.45859
G1 X86.137 Y160.772 E143.19862
G1 X85.002 Y160.772 E143.24378
G1 X72.978 Y148.748 E143.91995
G1 X72.978 Y149.884 E143.96511
G1 X83.866 Y160.772 E144.57741
G1 X82.730 Y160.772 E144.62257
G1 X72.978 Y151.020 E145.17100
G1 X72.978 Y152.155 E145.21616
G1 X81.595 Y160.772 E145.70074
G1 X80.459 Y160.772 E145.74589
G1 X72.978 Y153.291 E146.16660
G1 X72.978 Y154.427 E146.21176
G1 X74.491 Y155.940 E146.29689
G1 X73.355 Y155.940 E146.34208
G1 X72.978 Y155.562 E146.36329
G1 X77.817 Y159.266 F36000.000
G1 X79.323 Y160.772 E146.44798 F1800.000
G1 X78.188 Y160.772 E146.49314
G1 X77.816 Y160.401 E146.51404
G1 E144.51404 F2400.00000
G92 E0
G1 X122.670 Y46.734 F36000.000
G1 E2.00000 F2400.00000
G1 X123.060 Y46.687 E2.01558 F1800.000
G1 X123.424 Y46.593 E2.03046
G1 X123.773 Y46.455 E2.04532
G1 X124.102 Y46.275 E2.06019
G1 X124.406 Y46.054 E2.07506
G1 X124.680 Y45.797 E2.08993
G1 X124.919 Y45.507 E2.10481
G1 X125.120 Y45.190 E2.11968
G1 X125.280 Y44.851 E2.13455
G1 X125.396 Y44.494 E2.14942
G1 X125.466 Y44.125 E2.16429
G1 X125.503 Y43.542 E2.18742
G1 X126.023 Y43.608 E2.20818
G1 X126.477 Y43.608 E2.22616
G1 X126.927 Y43.551 E2.24413
G1 X127.513 Y43.401 E2.26807
G1 X127.513 Y89.099 E4.07804
G1 X126.927 Y88.949 E4.10197
G1 X126.477 Y88.892 E4.11995
G1 X126.023 Y88.892 E4.13793
G1 X125.503 Y88.958 E4.15869
G1 X125.468 Y88.396 E4.18101
G1 X125.397 Y88.011 E4.19649
G1 X125.280 Y87.649 E4.21156
G1 X125.120 Y87.310 E4.22643
G1 X124.919 Y86.993 E4.24129
G1 X124.693 Y86.719 E4.25536
G1 X124.410 Y86.449 E4.27083
G1 X124.102 Y86.225 E4.28591
G1 X123.773 Y86.045 E4.30078
G1 X123.424 Y85.907 E4.31564
G1 X123.060 Y85.813 E4.33052
G1 X122.688 Y85.766 E4.34539
G1 X122.312 Y85.766 E4.36026
G1 X121.940 Y85.813 E4.37513
G1 X121.576 Y85.907 E4.39001
G1 X121.227 Y86.045 E4.40487
G1 X120.898 Y86.225 E4.41974
G1 X120.594 Y86.446 E4.43461
G1 X120.320 Y86.703 E4.44948
G1 X120.081 Y86.993 E4.46436
G1 X119.880 Y87.310 E4.47923
G1 X119.720 Y87.649 E4.49410
G1 X119.604 Y88.006 E4.50897
G1 X119.534 Y88.375 E4.52384
G1 X119.510 Y88.750 E4.53871
G1 X119.532 Y89.104 E4.55277
G1 X119.603 Y89.489 E4.56825
G1 X119.720 Y89.851 E4.58332
G1 X119.880 Y90.190 E4.59819
G1 X120.081 Y90.507 E4.61305
G1 X120.307 Y90.781 E4.62712
G1 X120.590 Y91.051 E4.64260
G1 X120.898 Y91.274 E4.65767
G1 X121.227 Y91.455 E4.67254
G1 X121.576 Y91.593 E4.68741
